X:1
T:Title
%%score { 1 | 2 }
L:1/8
Q:1/4=100
M:4/4
K:Ab
V:1 treble nm="Grand Piano"
V:2 bass 
V:1
 [Ec]2 [Ec][Ec] [Ec] [Ac]2 [Ac] | [Bd]2 [Ac][Bd] [ce]2 z2 | [df]2 [Fd][df] [df] [ce]2 [Ae] | %3
w: E.~S.~Lorenz * * * * *|||
 [F=d]2 [Ge][Af] [Be]2 z2 | [Ec]2 [Ec][Ec] [Ec] [Ac]2 [Ac] | [Bd]2 [Ac][Bd] [ce]2 z2 | %6
w: |||
 [df]2 [Fd][df] [df] [ce]2 [Bd] | [Ac]2 [GB][Bd] [Ac]2 z2 | %8
w: ||
 [Ad]2 [Ad]>[Ad] [Ad][Ad][Ad][K:bass]F,, | E,,2 A,,>B,, C,2 z2 | [Be]2 [Be]>[Be] [Be][Be][Be]G | %11
w: |||
 A2 c>d e2 z2 | [Ec]2 [Ec][Ec] [Ec] [Ac]2 [Ac] | [Bd]2 [Ac][Bd] [ce]2 z2 | %14
w: |||
 [df]2 [Fd][df] [df] [ce]2 [Bd] |[M:8/4] [Ac]2 [GB][Bd] .[Ac]4 z8 |] %16
w: ||
V:2
 [A,,,A,,]2 [A,,,A,,][A,,,A,,] [A,,,A,,] [A,,,E,,]2 [A,,,A,,] | %1
 [E,,G,,]2 [E,,A,,][E,,G,,] A,,2 z2 | [D,,A,,]2 [D,,A,,][D,,A,,] [A,,,A,,] [A,,,A,,]2 [A,,,C,] | %3
 [B,,,B,,]2 [B,,,B,,][B,,,B,,] [E,,G,,]2 z2 | %4
 [A,,,A,,]2 [A,,,A,,][A,,,A,,] [A,,,A,,] [A,,,E,,]2 [A,,,A,,] | %5
 [E,,G,,]2 [E,,A,,][E,,G,,] A,,2 z2 | [D,,A,,]2 [D,,A,,][D,,A,,] [A,,,A,,] [A,,,A,,]2 [D,,F,,] | %7
 E,,2 E,,E,, [A,,,E,,]2 z2 | [D,,F,,]2 [D,,F,,]>[D,,F,,] [D,,F,,][D,,F,,] .[D,,F,,]2 | A,,,6 z2 | %10
 [E,,G,,]2 [E,,G,,]>[E,,G,,] [E,,G,,][E,,G,,] .[E,,G,,]2 | A,,,6 z2 | %12
 [A,,A,]2 [A,,A,][A,,A,] [A,,A,] [A,,E,]2 [A,,A,] | [E,G,]2 [E,A,][E,G,] A,2 z2 | %14
 [D,A,]2 [D,A,][D,A,] [A,,A,] [A,,A,]2 [D,F,] |[M:8/4] E,2 E,E, .[A,,E,]4 z8 |] %16

